X:148
T:Jesus Christ, Our Blessed Savior
%%stretchlast false
M:4/4
L:1/4
K:Bb clef=C1
"^ii"[C,E,G,C]2 "^V/ii"[G,,D,=B,G]2 | "^ii"[C,E,CG] [_A,,C,CG]/ "^v¹"[_A,,C,CF]/ "^V/ii"[G,,D,=B,G] "^ii"[C,E,G,C] | [C,G,CE]2 [C,G,CE]2 | "^ii²"[G,,G,CE]2 [G,,G,CD] "^V/ii"[G,,G,=B,D] | "^ii"[C,E,G,C]2 [C,C] [C,C] | "^♭VIImaj7"[_A,,G,CE] "^IV¹"[G,,G,B,E] "^v7"[F,,_A,CE] [F,,B,CE] | "^I7"[B,,_A,DF]2 "^iv"[E,B,EF]3/2 "^I"[B,,B,DF]/ | "^ii7"[C,B,CG] [G,,B,=B,G]/ [G,,B,=B,F]/ "^ii"[C,G,E] [C,G,D] | [C,E,G,C]2 [C,E,C] [C,E,C] | "^IV"[E,G,B,E] "^ii"[C,G,CE] [F,G,CE] [F,G,CE] | "^I7"[B,,_A,DF]2 "^iv"[E,B,EF]3/2 "^I"[B,,B,DF]/ | "^ii7"[C,B,CG]3/2 [C,B,CF]/ "^IV"[E,G,B,E] "^iv¹"[_A,,G,E] | "^vi¹"[B,,G,DB] "^♭VII²"[E,_A,B,c] [C,F,CB]/ "^V²"[C,F,CA]/ "^ii"[C,E,CG] | "^IVmaj7²"[B,,G,DE]2 [E,B,EF]3/2 "^I"[B,,B,DF]/ | "^ii7"[C,B,CG] [G,,B,=B,G]/ [G,,B,=B,F]/ "^ii"[C,G,E] [C,G,D] | [C,E,G,C]4 |]
